X:18336
T:Voi por agua (CT 491)
C:Tradicional
S:Música Tradicional Asturiana, (C) Tello & Tito. Asturies, 2001.
S:http://pagina.de/MusTradAst <telloytito@asturies.org>
N:Canción de empleo indeterminado, transcrita en Llanuces, ayuntamiento de Quirós.
O:Llanuces (Quirós)
A:Asturies
Z:Cancioneru de Torner 491
M:3/4
L:1/8
Q:1/4=92
W:Voi por agua, voi por agua
W:a la fuente de Val.lones;
W:Voi por agua, voi por agua
W:y a buscar los mios amores.
K:Cm
Be ec dd|(B3/2A/2) G2 ee|f2 (d3/4c/4B) dd|(e/2f/4e/4)d- d2 z2|
Bee cdd|(B3/2A/2) G2 cc|d2 B2 GA|(B3/4c/4)B- B2 z2||


